X: 1
T: John McEvoy's
M: 4/4
L: 1/8
R: reel
K: Dmaj
ABAF DFAF | ABde fe e2 | fdec dBAF |1 ABde fddB :|2 ABde fd d2 ||
dfaf bfaf | dfaf ge e2 | =cege aege | dfed cA A2 | 
dfaf bfaf | dfaf geeg | f2 ec dBAF | ABde fd d2 :|
